X:15
T: Duna-parton van egy malom...
K: F
L: 1/4
gfd | g a/g/ |
a/g/ f d | c d/c/ | d d z | 
c B G | c d/c/ |
d/c/BG | F G/F/ | G G  z

